images/portal/4862.svg

<?xml version="1.0" standalone="no"?><!DOCTYPE svg PUBLIC "-//W3C//DTD SVG 1.1//EN" "http://www.w3.org/Graphics/SVG/1.1/DTD/svg11.dtd"><svg xmlns:xlink="http://www.w3.org/1999/xlink" version="1.1" class="highcharts-root" style="font-family:Arial;font-size:12px;" xmlns="http://www.w3.org/2000/svg" viewBox="0 0 485 415"><desc>Created with Highstock 5.0.7</desc><defs><clipPath id="highcharts-icolwgj-1"><rect x="0" y="0" width="269" height="295" fill="none"></rect></clipPath><clipPath id="highcharts-icolwgj-2"><rect x="0" y="0" width="269" height="295" fill="none"></rect></clipPath></defs><rect fill="#fbfbfb" class="highcharts-background" x="0" y="0" width="485" height="415" rx="0" ry="0"></rect><rect fill="none" class="highcharts-plot-background" x="53" y="55" width="269" height="295"></rect><g class="highcharts-grid highcharts-xaxis-grid "><path fill="none" class="highcharts-grid-line" d="M 106.5 55 L 106.5 350" opacity="1"></path><path fill="none" class="highcharts-grid-line" d="M 160.5 55 L 160.5 350" opacity="1"></path><path fill="none" class="highcharts-grid-line" d="M 213.5 55 L 213.5 350" opacity="1"></path><path fill="none" class="highcharts-grid-line" d="M 267.5 55 L 267.5 350" opacity="1"></path><path fill="none" class="highcharts-grid-line" d="M 321.5 55 L 321.5 350" opacity="1"></path><path fill="none" class="highcharts-grid-line" d="M 52.5 55 L 52.5 350" opacity="1"></path></g><g class="highcharts-grid highcharts-yaxis-grid "><path fill="none" stroke="#e6e6e6" stroke-width="1" class="highcharts-grid-line" d="M 53 350.5 L 322 350.5" opacity="1"></path><path fill="none" stroke="#e6e6e6" stroke-width="1" class="highcharts-grid-line" d="M 53 321.5 L 322 321.5" opacity="1"></path><path fill="none" stroke="#e6e6e6" stroke-width="1" class="highcharts-grid-line" d="M 53 291.5 L 322 291.5" opacity="1"></path><path fill="none" stroke="#e6e6e6" stroke-width="1" class="highcharts-grid-line" d="M 53 262.5 L 322 262.5" opacity="1"></path><path fill="none" stroke="#e6e6e6" stroke-width="1" class="highcharts-grid-line" d="M 53 232.5 L 322 232.5" opacity="1"></path><path fill="none" stroke="#e6e6e6" stroke-width="1" class="highcharts-grid-line" d="M 53 203.5 L 322 203.5" opacity="1"></path><path fill="none" stroke="#e6e6e6" stroke-width="1" class="highcharts-grid-line" d="M 53 173.5 L 322 173.5" opacity="1"></path><path fill="none" stroke="#e6e6e6" stroke-width="1" class="highcharts-grid-line" d="M 53 144.5 L 322 144.5" opacity="1"></path><path fill="none" stroke="#e6e6e6" stroke-width="1" class="highcharts-grid-line" d="M 53 114.5 L 322 114.5" opacity="1"></path><path fill="none" stroke="#e6e6e6" stroke-width="1" class="highcharts-grid-line" d="M 53 85.5 L 322 85.5" opacity="1"></path><path fill="none" stroke="#e6e6e6" stroke-width="1" class="highcharts-grid-line" d="M 53 54.5 L 322 54.5" opacity="1"></path></g><rect fill="none" class="highcharts-plot-border" x="53" y="55" width="269" height="295"></rect><g class="highcharts-axis highcharts-xaxis "><path fill="none" class="highcharts-tick" stroke="#FFFFFF" stroke-width="1" d="M 106.5 350 L 106.5 360" opacity="1"></path><path fill="none" class="highcharts-tick" stroke="#FFFFFF" stroke-width="1" d="M 160.5 350 L 160.5 360" opacity="1"></path><path fill="none" class="highcharts-tick" stroke="#FFFFFF" stroke-width="1" d="M 213.5 350 L 213.5 360" opacity="1"></path><path fill="none" class="highcharts-tick" stroke="#FFFFFF" stroke-width="1" d="M 267.5 350 L 267.5 360" opacity="1"></path><path fill="none" class="highcharts-tick" stroke="#FFFFFF" stroke-width="1" d="M 322.5 350 L 322.5 360" opacity="1"></path><path fill="none" class="highcharts-tick" stroke="#FFFFFF" stroke-width="1" d="M 52.5 350 L 52.5 360" opacity="1"></path><path fill="none" class="highcharts-axis-line" stroke="#ccd6eb" stroke-width="1" d="M 53 350.5 L 322 350.5"></path></g><g class="highcharts-axis highcharts-yaxis "><path fill="none" class="highcharts-axis-line" d="M 53 55 L 53 350"></path></g><g class="highcharts-series-group"><g class="highcharts-series highcharts-series-0 highcharts-column-series highcharts-color-undefined highcharts-tracker" transform="translate(53,55) scale(1 1)" clip-path="url(#highcharts-icolwgj-2)"><rect x="13.5" y="249.5" width="26" height="46" fill="#256370" class="highcharts-point" stroke="#ffffff" stroke-width="1"></rect><rect x="67.5" y="260.5" width="26" height="35" fill="#256370" class="highcharts-point" stroke="#ffffff" stroke-width="1"></rect><rect x="121.5" y="264.5" width="26" height="31" fill="#256370" class="highcharts-point" stroke="#ffffff" stroke-width="1"></rect><rect x="174.5" y="235.5" width="26" height="60" fill="#256370" class="highcharts-point" stroke="#ffffff" stroke-width="1"></rect><rect x="228.5" y="252.5" width="26" height="43" fill="#256370" class="highcharts-point" stroke="#ffffff" stroke-width="1"></rect></g><g class="highcharts-markers highcharts-series-0 highcharts-column-series highcharts-color-undefined " transform="translate(53,55) scale(1 1)" clip-path="none"></g><g class="highcharts-series highcharts-series-1 highcharts-column-series highcharts-color-undefined highcharts-tracker" transform="translate(53,55) scale(1 1)" clip-path="url(#highcharts-icolwgj-2)"><rect x="13.5" y="182.5" width="26" height="67" fill="#71A3B5" class="highcharts-point" stroke="#ffffff" stroke-width="1"></rect><rect x="67.5" y="190.5" width="26" height="70" fill="#71A3B5" class="highcharts-point" stroke="#ffffff" stroke-width="1"></rect><rect x="121.5" y="189.5" width="26" height="75" fill="#71A3B5" class="highcharts-point" stroke="#ffffff" stroke-width="1"></rect><rect x="174.5" y="163.5" width="26" height="72" fill="#71A3B5" class="highcharts-point" stroke="#ffffff" stroke-width="1"></rect><rect x="228.5" y="157.5" width="26" height="95" fill="#71A3B5" class="highcharts-point" stroke="#ffffff" stroke-width="1"></rect></g><g class="highcharts-markers highcharts-series-1 highcharts-column-series highcharts-color-undefined " transform="translate(53,55) scale(1 1)" clip-path="none"></g><g class="highcharts-series highcharts-series-2 highcharts-column-series highcharts-color-undefined highcharts-tracker" transform="translate(53,55) scale(1 1)" clip-path="url(#highcharts-icolwgj-2)"><rect x="13.5" y="150.5" width="26" height="32" fill="#C8C8C8" class="highcharts-point" stroke="#ffffff" stroke-width="1"></rect><rect x="67.5" y="162.5" width="26" height="28" fill="#C8C8C8" class="highcharts-point" stroke="#ffffff" stroke-width="1"></rect><rect x="121.5" y="156.5" width="26" height="33" fill="#C8C8C8" class="highcharts-point" stroke="#ffffff" stroke-width="1"></rect><rect x="174.5" y="145.5" width="26" height="18" fill="#C8C8C8" class="highcharts-point" stroke="#ffffff" stroke-width="1"></rect><rect x="228.5" y="126.5" width="26" height="31" fill="#C8C8C8" class="highcharts-point" stroke="#ffffff" stroke-width="1"></rect></g><g class="highcharts-markers highcharts-series-2 highcharts-column-series highcharts-color-undefined " transform="translate(53,55) scale(1 1)" clip-path="none"></g><g class="highcharts-series highcharts-series-3 highcharts-column-series highcharts-color-undefined highcharts-tracker" transform="translate(53,55) scale(1 1)" clip-path="url(#highcharts-icolwgj-2)"><rect x="13.5" y="63.5" width="26" height="87" fill="#FFBB58" class="highcharts-point" stroke="#ffffff" stroke-width="1"></rect><rect x="67.5" y="67.5" width="26" height="95" fill="#FFBB58" class="highcharts-point" stroke="#ffffff" stroke-width="1"></rect><rect x="121.5" y="59.5" width="26" height="97" fill="#FFBB58" class="highcharts-point" stroke="#ffffff" stroke-width="1"></rect><rect x="174.5" y="61.5" width="26" height="84" fill="#FFBB58" class="highcharts-point" stroke="#ffffff" stroke-width="1"></rect><rect x="228.5" y="34.5" width="26" height="92" fill="#FFBB58" class="highcharts-point" stroke="#ffffff" stroke-width="1"></rect></g><g class="highcharts-markers highcharts-series-3 highcharts-column-series highcharts-color-undefined " transform="translate(53,55) scale(1 1)" clip-path="none"></g><g class="highcharts-series highcharts-series-4 highcharts-column-series highcharts-color-undefined highcharts-tracker" transform="translate(53,55) scale(1 1)" clip-path="url(#highcharts-icolwgj-2)"><rect x="13.5" y="-0.5" width="26" height="64" fill="#FF8028" class="highcharts-point" stroke="#ffffff" stroke-width="1"></rect><rect x="67.5" y="-0.5" width="26" height="68" fill="#FF8028" class="highcharts-point" stroke="#ffffff" stroke-width="1"></rect><rect x="121.5" y="-0.5" width="26" height="60" fill="#FF8028" class="highcharts-point" stroke="#ffffff" stroke-width="1"></rect><rect x="174.5" y="-0.5" width="26" height="62" fill="#FF8028" class="highcharts-point" stroke="#ffffff" stroke-width="1"></rect><rect x="228.5" y="-0.5" width="26" height="35" fill="#FF8028" class="highcharts-point" stroke="#ffffff" stroke-width="1"></rect></g><g class="highcharts-markers highcharts-series-4 highcharts-column-series highcharts-color-undefined " transform="translate(53,55) scale(1 1)" clip-path="none"></g></g><text x="10" text-anchor="start" class="highcharts-title" style="color:#000000;font-size:14px;font-weight:bold;fill:#000000;" y="21"><tspan>Beurteilung der Bildungschancen</tspan></text><text x="10" text-anchor="start" class="highcharts-subtitle" style="color:#000000;font-size:12px;fill:#000000;" y="40"><tspan>«Alle Kinder erhalten die gleichen Bildungschancen.»</tspan></text><g class="highcharts-legend" transform="translate(334,122)"><rect fill="none" class="highcharts-legend-box" rx="0" ry="0" x="0" y="0" width="141" height="151" visibility="visible"></rect><g><g><g class="highcharts-legend-item highcharts-column-series highcharts-color-undefined highcharts-series-4" transform="translate(8,3)"><text x="21" style="color:#333333;font-size:12px;font-weight:normal;cursor:pointer;fill:#333333;" text-anchor="start" y="15"><tspan>Überhaupt nicht</tspan><tspan dy="15" x="21">einverstanden</tspan><title>Überhaupt nicht einverstanden</title></text><rect x="2" y="4" width="12" height="12" fill="#FF8028" class="highcharts-point"></rect></g><g class="highcharts-legend-item highcharts-column-series highcharts-color-undefined highcharts-series-3" transform="translate(8,37)"><text x="21" y="15" style="color:#333333;font-size:12px;font-weight:normal;cursor:pointer;fill:#333333;" text-anchor="start"><tspan>Eher nicht</tspan><tspan dy="15" x="21">einverstanden</tspan><title>Eher nicht einverstanden</title></text><rect x="2" y="4" width="12" height="12" fill="#FFBB58" class="highcharts-point"></rect></g><g class="highcharts-legend-item highcharts-column-series highcharts-color-undefined highcharts-series-2" transform="translate(8,71)"><text x="21" y="15" style="color:#333333;font-size:12px;font-weight:normal;cursor:pointer;fill:#333333;" text-anchor="start"><tspan>Weiss nicht /</tspan><tspan x="21" dy="15">keine Angabe</tspan></text><rect x="2" y="4" width="12" height="12" fill="#C8C8C8" class="highcharts-point"></rect></g><g class="highcharts-legend-item highcharts-column-series highcharts-color-undefined highcharts-series-1" transform="translate(8,105)"><text x="21" y="15" style="color:#333333;font-size:12px;font-weight:normal;cursor:pointer;fill:#333333;" text-anchor="start"><tspan>Eher einverstanden</tspan></text><rect x="2" y="4" width="12" height="12" fill="#71A3B5" class="highcharts-point"></rect></g><g class="highcharts-legend-item highcharts-column-series highcharts-color-undefined highcharts-series-0" transform="translate(8,124)"><text x="21" y="15" style="color:#333333;font-size:12px;font-weight:normal;cursor:pointer;fill:#333333;" text-anchor="start"><tspan>Sehr einverstanden</tspan></text><rect x="2" y="4" width="12" height="12" fill="#256370" class="highcharts-point"></rect></g></g></g></g><g class="highcharts-axis-labels highcharts-xaxis-labels "><text x="79.9" style="color:#000000;cursor:default;font-size:11px;fill:#000000;" text-anchor="middle" transform="translate(0,0)" y="369" opacity="1"><tspan>2003</tspan><tspan x="79.9" dy="14">(N=1497)</tspan></text><text x="133.7" style="color:#000000;cursor:default;font-size:11px;fill:#000000;" text-anchor="middle" transform="translate(0,0)" y="369" opacity="1"><tspan>2005</tspan><tspan x="133.7" dy="14">(N=1510)</tspan></text><text x="187.5" style="color:#000000;cursor:default;font-size:11px;fill:#000000;" text-anchor="middle" transform="translate(0,0)" y="369" opacity="1"><tspan>2007</tspan><tspan x="187.5" dy="14">(N=1509)</tspan></text><text x="241.29999999999998" style="color:#000000;cursor:default;font-size:11px;fill:#000000;" text-anchor="middle" transform="translate(0,0)" y="369" opacity="1"><tspan>2011</tspan><tspan x="241.29999999999998" dy="14">(N=1516)</tspan></text><text x="295.1" style="color:#000000;cursor:default;font-size:11px;fill:#000000;" text-anchor="middle" transform="translate(0,0)" y="369" opacity="1"><tspan>2015</tspan><tspan x="295.1" dy="14">(N=1506)</tspan></text></g><g class="highcharts-axis-labels highcharts-yaxis-labels "><text x="38" style="color:#000000;cursor:default;font-size:11px;fill:#000000;" text-anchor="end" transform="translate(0,0)" y="355" opacity="1"><tspan>0%</tspan></text><text x="38" style="color:#000000;cursor:default;font-size:11px;fill:#000000;" text-anchor="end" transform="translate(0,0)" y="325" opacity="1"><tspan>10%</tspan></text><text x="38" style="color:#000000;cursor:default;font-size:11px;fill:#000000;" text-anchor="end" transform="translate(0,0)" y="296" opacity="1"><tspan>20%</tspan></text><text x="38" style="color:#000000;cursor:default;font-size:11px;fill:#000000;" text-anchor="end" transform="translate(0,0)" y="266" opacity="1"><tspan>30%</tspan></text><text x="38" style="color:#000000;cursor:default;font-size:11px;fill:#000000;" text-anchor="end" transform="translate(0,0)" y="237" opacity="1"><tspan>40%</tspan></text><text x="38" style="color:#000000;cursor:default;font-size:11px;fill:#000000;" text-anchor="end" transform="translate(0,0)" y="207" opacity="1"><tspan>50%</tspan></text><text x="38" style="color:#000000;cursor:default;font-size:11px;fill:#000000;" text-anchor="end" transform="translate(0,0)" y="178" opacity="1"><tspan>60%</tspan></text><text x="38" style="color:#000000;cursor:default;font-size:11px;fill:#000000;" text-anchor="end" transform="translate(0,0)" y="148" opacity="1"><tspan>70%</tspan></text><text x="38" style="color:#000000;cursor:default;font-size:11px;fill:#000000;" text-anchor="end" transform="translate(0,0)" y="119" opacity="1"><tspan>80%</tspan></text><text x="38" style="color:#000000;cursor:default;font-size:11px;fill:#000000;" text-anchor="end" transform="translate(0,0)" y="89" opacity="1"><tspan>90%</tspan></text><text x="38" style="color:#000000;cursor:default;font-size:11px;fill:#000000;" text-anchor="end" transform="translate(0,0)" y="60" opacity="1"><tspan>100%</tspan></text></g><text x="10" class="highcharts-credits" text-anchor="start" style="cursor:default;color:#000000;font-size:10px;fill:#000000;" y="400"><tspan>Quelle: Statistisches Amt Basel-Stadt, kantonale Bevölkerungsbefragung: F16a_3</tspan></text></svg>

<svg class="highcharts-root" xmlns="http://www.w3.org/2000/svg" viewBox="0 0 485 415" font-family="Arial" font-size="12">
    <defs>
        <clipPath id="a">
            <path fill="none" d="M0 0h269v295H0z"/>
        </clipPath>
    </defs>
    <rect fill="#fbfbfb" class="highcharts-background" width="485" height="415" rx="0" ry="0"/>
    <path fill="none" class="highcharts-plot-background" d="M53 55h269v295H53z"/>
    <g class="highcharts-grid highcharts-xaxis-grid">
        <path fill="none" class="highcharts-grid-line" d="M106.5 55v295m54-295v295m53-295v295m54-295v295m54-295v295M52.5 55v295"/>
    </g>
    <g class="highcharts-grid highcharts-yaxis-grid">
        <path fill="none" stroke="#e6e6e6" class="highcharts-grid-line" d="M53 350.5h269m-269-29h269m-269-30h269m-269-29h269m-269-30h269m-269-29h269m-269-30h269m-269-29h269m-269-30h269m-269-29h269m-269-31h269"/>
    </g>
    <path fill="none" class="highcharts-plot-border" d="M53 55h269v295H53z"/>
    <g class="highcharts-axis highcharts-xaxis">
        <path fill="none" class="highcharts-tick" stroke="#FFF" d="M106.5 350v10m54-10v10m53-10v10m54-10v10m55-10v10m-270-10v10"/>
        <path fill="none" class="highcharts-axis-line" stroke="#ccd6eb" d="M53 350.5h269"/>
    </g>
    <g class="highcharts-axis highcharts-yaxis">
        <path fill="none" class="highcharts-axis-line" d="M53 55v295"/>
    </g>
    <g class="highcharts-series-group">
        <g class="highcharts-series highcharts-series-0 highcharts-column-series highcharts-color-undefined highcharts-tracker" transform="translate(53 55)" clip-path="url(#a)">
            <path fill="#256370" class="highcharts-point" stroke="#fff" d="M13.5 249.5h26v46h-26zm54 11h26v35h-26zm54 4h26v31h-26zm53-29h26v60h-26zm54 17h26v43h-26z"/>
        </g>
        <g class="highcharts-series highcharts-series-1 highcharts-column-series highcharts-color-undefined highcharts-tracker" transform="translate(53 55)" clip-path="url(#a)">
            <path fill="#71A3B5" class="highcharts-point" stroke="#fff" d="M13.5 182.5h26v67h-26zm54 8h26v70h-26zm54-1h26v75h-26zm53-26h26v72h-26zm54-6h26v95h-26z"/>
        </g>
        <g class="highcharts-series highcharts-series-2 highcharts-column-series highcharts-color-undefined highcharts-tracker" transform="translate(53 55)" clip-path="url(#a)">
            <path fill="#C8C8C8" class="highcharts-point" stroke="#fff" d="M13.5 150.5h26v32h-26zm54 12h26v28h-26zm54-6h26v33h-26zm53-11h26v18h-26zm54-19h26v31h-26z"/>
        </g>
        <g class="highcharts-series highcharts-series-3 highcharts-column-series highcharts-color-undefined highcharts-tracker" transform="translate(53 55)" clip-path="url(#a)">
            <path fill="#FFBB58" class="highcharts-point" stroke="#fff" d="M13.5 63.5h26v87h-26zm54 4h26v95h-26zm54-8h26v97h-26zm53 2h26v84h-26zm54-27h26v92h-26z"/>
        </g>
        <g class="highcharts-series highcharts-series-4 highcharts-column-series highcharts-color-undefined highcharts-tracker" transform="translate(53 55)" clip-path="url(#a)">
            <path fill="#FF8028" class="highcharts-point" stroke="#fff" d="M13.5-.5h26v64h-26zm54 0h26v68h-26zm54 0h26v60h-26zm53 0h26v62h-26zm54 0h26v35h-26z"/>
        </g>
    </g>
    <text x="10" class="highcharts-title" y="21" color="#000" font-size="14" font-weight="700">
        <tspan>Beurteilung der Bildungschancen</tspan>
    </text>
    <text x="10" class="highcharts-subtitle" y="40" color="#000">
        <tspan>«Alle Kinder erhalten die gleichen Bildungschancen.»</tspan>
    </text>
    <g class="highcharts-legend" transform="translate(334 122)">
        <rect fill="none" class="highcharts-legend-box" rx="0" ry="0" width="141" height="151"/>
        <g class="highcharts-legend-item highcharts-column-series highcharts-color-undefined highcharts-series-4">
            <text x="21" y="15" color="#333" font-weight="400" cursor="pointer" fill="#333" transform="translate(8 3)">
                <tspan>Überhaupt nicht</tspan><tspan dy="15" x="21">einverstanden</tspan><title>Überhaupt nicht einverstanden</title>
            </text>
            <path fill="#FF8028" class="highcharts-point" d="M10 7h12v12H10z"/>
        </g>
        <g class="highcharts-legend-item highcharts-column-series highcharts-color-undefined highcharts-series-3">
            <text x="21" y="15" color="#333" font-weight="400" cursor="pointer" fill="#333" transform="translate(8 37)">
                <tspan>Eher nicht</tspan><tspan dy="15" x="21">einverstanden</tspan><title>Eher nicht einverstanden</title>
            </text>
            <path fill="#FFBB58" class="highcharts-point" d="M10 41h12v12H10z"/>
        </g>
        <g class="highcharts-legend-item highcharts-column-series highcharts-color-undefined highcharts-series-2">
            <text x="21" y="15" color="#333" font-weight="400" cursor="pointer" fill="#333" transform="translate(8 71)">
                <tspan>Weiss nicht /</tspan><tspan x="21" dy="15">keine Angabe</tspan>
            </text>
            <path fill="#C8C8C8" class="highcharts-point" d="M10 75h12v12H10z"/>
        </g>
        <g class="highcharts-legend-item highcharts-column-series highcharts-color-undefined highcharts-series-1">
            <text x="21" y="15" color="#333" font-weight="400" cursor="pointer" fill="#333" transform="translate(8 105)">
                <tspan>Eher einverstanden</tspan>
            </text>
            <path fill="#71A3B5" class="highcharts-point" d="M10 109h12v12H10z"/>
        </g>
        <g class="highcharts-legend-item highcharts-column-series highcharts-color-undefined highcharts-series-0">
            <text x="21" y="15" color="#333" font-weight="400" cursor="pointer" fill="#333" transform="translate(8 124)">
                <tspan>Sehr einverstanden</tspan>
            </text>
            <path fill="#256370" class="highcharts-point" d="M10 128h12v12H10z"/>
        </g>
    </g>
    <g class="highcharts-axis-labels highcharts-xaxis-labels" text-anchor="middle" color="#000" cursor="default" font-size="11">
        <text x="79.9" y="369">
            <tspan>2003</tspan><tspan x="79.9" dy="14">(N=1497)</tspan>
        </text>
        <text x="133.7" y="369">
            <tspan>2005</tspan><tspan x="133.7" dy="14">(N=1510)</tspan>
        </text>
        <text x="187.5" y="369">
            <tspan>2007</tspan><tspan x="187.5" dy="14">(N=1509)</tspan>
        </text>
        <text x="241.3" y="369">
            <tspan>2011</tspan><tspan x="241.3" dy="14">(N=1516)</tspan>
        </text>
        <text x="295.1" y="369">
            <tspan>2015</tspan><tspan x="295.1" dy="14">(N=1506)</tspan>
        </text>
    </g>
    <g class="highcharts-axis-labels highcharts-yaxis-labels" text-anchor="end" color="#000" cursor="default" font-size="11">
        <text x="38" y="355">
            <tspan>0%</tspan>
        </text>
        <text x="38" y="325">
            <tspan>10%</tspan>
        </text>
        <text x="38" y="296">
            <tspan>20%</tspan>
        </text>
        <text x="38" y="266">
            <tspan>30%</tspan>
        </text>
        <text x="38" y="237">
            <tspan>40%</tspan>
        </text>
        <text x="38" y="207">
            <tspan>50%</tspan>
        </text>
        <text x="38" y="178">
            <tspan>60%</tspan>
        </text>
        <text x="38" y="148">
            <tspan>70%</tspan>
        </text>
        <text x="38" y="119">
            <tspan>80%</tspan>
        </text>
        <text x="38" y="89">
            <tspan>90%</tspan>
        </text>
        <text x="38" y="60">
            <tspan>100%</tspan>
        </text>
    </g>
    <text x="10" class="highcharts-credits" y="400" cursor="default" color="#000" font-size="10">
        <tspan>Quelle: Statistisches Amt Basel-Stadt, kantonale Bevölkerungsbefragung: F16a_3</tspan>
    </text>
</svg>
